images/usecases/scada/oil-2.svg

<svg width="285" height="210" viewBox="0 0 285 210" fill="none" xmlns="http://www.w3.org/2000/svg">
<path d="M107.75 114.773C107.75 69.348 144.575 32.5234 190 32.5234C235.425 32.5234 272.25 69.348 272.25 114.773C272.25 160.199 235.425 197.023 190 197.023C144.575 197.023 107.75 160.199 107.75 114.773Z" stroke="#3E9AF8" stroke-width="1.5"/>
<path fill-rule="evenodd" clip-rule="evenodd" d="M222.861 69.4713C223.49 69.2916 224.166 69.4014 224.705 69.7707C230.219 73.5455 239.376 85.3196 234.552 103.138C234.35 103.886 233.768 104.472 233.021 104.68L230.785 105.301V114.136C230.785 115.349 229.802 116.332 228.589 116.332C227.376 116.332 226.393 115.349 226.393 114.136V106.523L222.864 107.505C221.697 107.829 220.488 107.148 220.161 105.982L211.468 75.001C211.141 73.8371 211.816 72.6282 212.979 72.296L222.861 69.4713ZM216.287 75.9186L223.798 102.686L230.616 100.789C233.936 86.6905 227.276 77.4206 223.025 73.9928L216.287 75.9186ZM201.206 98.5611C202.414 98.4476 203.485 99.3346 203.598 100.542L205.044 115.93L208.896 155.769H233.805C235.018 155.769 236.001 156.752 236.001 157.965C236.001 159.178 235.018 160.161 233.805 160.161H147.423C146.21 160.161 145.227 159.178 145.227 157.965V135.732C145.227 135.369 145.317 135.011 145.489 134.691L150.979 124.486C151.362 123.774 152.105 123.33 152.913 123.33H155.567V113.493C155.567 112.28 156.55 111.297 157.763 111.297C158.976 111.297 159.959 112.28 159.959 113.493V123.33H167.92C169.133 123.33 170.116 124.313 170.116 125.526V133.536H173.594C174.807 133.536 175.79 134.519 175.79 135.732V155.769H183.118L186.736 115.942C186.737 115.934 186.737 115.926 186.738 115.918L187.972 103.806C188.094 102.599 189.172 101.72 190.379 101.843C191.586 101.966 192.464 103.044 192.341 104.25L191.354 113.945H200.446L199.225 100.953C199.112 99.7456 199.999 98.6746 201.206 98.5611ZM200.864 118.337H194.272L201.56 125.536L200.864 118.337ZM198.981 129.162L190.689 120.972L189.945 129.162H198.981ZM189.2 137.37L187.528 155.769H202.588L189.2 137.37ZM203.941 150.164L191.855 133.554H202.336L203.941 150.164ZM171.397 155.769V137.928H159.959V155.769H171.397ZM155.567 155.769V135.732C155.567 134.519 156.55 133.536 157.763 133.536H165.724V127.722H154.225L149.619 136.285V155.769H155.567ZM228.589 127.431C229.802 127.431 230.785 128.414 230.785 129.627V140.926C230.785 142.139 229.802 143.122 228.589 143.122C227.376 143.122 226.393 142.139 226.393 140.926V129.627C226.393 128.414 227.376 127.431 228.589 127.431Z" fill="#3E9AF8"/>
<path d="M230.693 122.095C230.693 123.308 229.71 124.291 228.497 124.291C227.284 124.291 226.301 123.308 226.301 122.095C226.301 120.882 227.284 119.898 228.497 119.898C229.71 119.898 230.693 120.882 230.693 122.095Z" fill="#3E9AF8"/>
<path fill-rule="evenodd" clip-rule="evenodd" d="M214.403 86.1503L153.292 103.274C151.15 103.874 149.901 106.096 150.501 108.238C151.101 110.379 153.323 111.628 155.464 111.028L216.576 93.9043L214.403 86.1503ZM152.106 99.0449C147.629 100.299 145.017 104.946 146.271 109.423C147.526 113.9 152.172 116.512 156.649 115.258L221.991 96.9486L217.448 80.7358L152.106 99.0449Z" fill="#3E9AF8"/>
<path fill-rule="evenodd" clip-rule="evenodd" d="M231.608 155.769V148.174C231.608 146.203 230.01 144.605 228.039 144.605C226.068 144.605 224.47 146.203 224.47 148.174V155.769H231.608ZM236 148.174C236 143.777 232.436 140.213 228.039 140.213C223.642 140.213 220.078 143.777 220.078 148.174V160.161H236V148.174Z" fill="#3E9AF8"/>
<path d="M187.551 0.773438V16.7734" stroke="#3E9AF8" stroke-width="1.5"/>
<line y1="-0.75" x2="70.773" y2="-0.75" transform="matrix(1 -4.37905e-08 -4.36321e-08 -1 21.2305 111.484)" stroke="#3E9AF8" stroke-width="1.5"/>
<path d="M188.232 15.7671C175.49 15.7351 162.866 18.2219 151.085 23.0849C139.304 27.948 128.596 35.0918 119.575 44.1072C110.554 53.1226 103.397 63.8324 98.5137 75.6232C93.6306 87.4139 91.1175 100.054 91.1183 112.819L92.4658 112.819C92.465 100.231 94.9431 87.7672 99.7582 76.1404C104.573 64.5137 111.631 53.9529 120.526 45.0629C129.422 36.1729 139.981 29.1284 151.598 24.333C163.216 19.5376 175.663 17.0854 188.228 17.117L188.232 15.7671Z" fill="#3E9AF8"/>
<path d="M10.6159 122.255C16.0635 122.255 20.4819 117.83 20.4819 112.37C20.4819 106.909 16.0635 102.484 10.6159 102.484C5.16842 102.484 0.75 106.909 0.75 112.37C0.75 117.83 5.16842 122.255 10.6159 122.255Z" fill="#F4F8FE" stroke="#3E9AF8" stroke-width="1.5"/>
</svg>

<svg width="285" height="210" fill="none" xmlns="http://www.w3.org/2000/svg"><path d="M107.75 114.773c0-45.425 36.825-82.25 82.25-82.25s82.25 36.825 82.25 82.25c0 45.426-36.825 82.25-82.25 82.25s-82.25-36.824-82.25-82.25Z" stroke="#3E9AF8" stroke-width="1.5"/><path fill-rule="evenodd" clip-rule="evenodd" d="M222.861 69.471a2.195 2.195 0 0 1 1.844.3c5.514 3.775 14.671 15.549 9.847 33.367a2.195 2.195 0 0 1-1.531 1.542l-2.236.621v8.835a2.196 2.196 0 1 1-4.392 0v-7.613l-3.529.982a2.197 2.197 0 0 1-2.703-1.523l-8.693-30.981a2.195 2.195 0 0 1 1.511-2.705l9.882-2.825Zm-6.574 6.448 7.511 26.767 6.818-1.897c3.32-14.099-3.34-23.368-7.591-26.796l-6.738 1.926ZM201.206 98.56a2.196 2.196 0 0 1 2.392 1.981l1.446 15.388 3.852 39.839h24.909a2.196 2.196 0 1 1 0 4.392h-86.382a2.196 2.196 0 0 1-2.196-2.196v-22.233c0-.363.09-.721.262-1.041l5.49-10.205a2.196 2.196 0 0 1 1.934-1.156h2.654v-9.837a2.196 2.196 0 1 1 4.392 0v9.837h7.961c1.213 0 2.196.983 2.196 2.196v8.01h3.478c1.213 0 2.196.983 2.196 2.196v20.037h7.328l3.618-39.827.002-.024 1.234-12.112a2.195 2.195 0 1 1 4.369.444l-.987 9.695h9.092l-1.221-12.992a2.197 2.197 0 0 1 1.981-2.392Zm-.342 19.776h-6.592l7.288 7.199-.696-7.199Zm-1.883 10.825-8.292-8.19-.744 8.19h9.036Zm-9.781 8.208-1.672 18.399h15.06L189.2 137.37Zm14.741 12.794-12.086-16.61h10.481l1.605 16.61Zm-32.544 5.605v-17.841h-11.438v17.841h11.438Zm-15.83 0v-20.037c0-1.213.983-2.196 2.196-2.196h7.961v-5.814h-11.499l-4.606 8.563v19.484h5.948Zm73.022-28.338c1.213 0 2.196.983 2.196 2.196v11.299a2.196 2.196 0 1 1-4.392 0v-11.299c0-1.213.983-2.196 2.196-2.196Z" fill="#3E9AF8"/><path d="M230.693 122.095a2.196 2.196 0 1 1-4.392 0 2.196 2.196 0 0 1 4.392 0Z" fill="#3E9AF8"/><path fill-rule="evenodd" clip-rule="evenodd" d="m214.403 86.15-61.111 17.124a4.026 4.026 0 1 0 2.172 7.754l61.112-17.124-2.173-7.754Zm-62.297 12.895a8.42 8.42 0 0 0 4.543 16.213l65.342-18.31-4.543-16.212-65.342 18.309ZM231.608 155.769v-7.595a3.57 3.57 0 0 0-7.138 0v7.595h7.138Zm4.392-7.595a7.96 7.96 0 0 0-7.961-7.961 7.96 7.96 0 0 0-7.961 7.961v11.987H236v-11.987Z" fill="#3E9AF8"/><path d="M187.551.773v16" stroke="#3E9AF8" stroke-width="1.5"/><path transform="matrix(1 0 0 -1 21.23 111.484)" stroke="#3E9AF8" stroke-width="1.5" d="M0-.75h70.773"/><path d="M188.232 15.767a96.72 96.72 0 0 0-37.147 7.318 96.86 96.86 0 0 0-31.51 21.022 97.064 97.064 0 0 0-21.061 31.516 97.198 97.198 0 0 0-7.396 37.196h1.348a95.846 95.846 0 0 1 7.292-36.679 95.712 95.712 0 0 1 20.768-31.077 95.52 95.52 0 0 1 31.072-20.73 95.374 95.374 0 0 1 36.63-7.216l.004-1.35Z" fill="#3E9AF8"/><path d="M10.616 122.255c5.448 0 9.866-4.425 9.866-9.885 0-5.461-4.418-9.886-9.866-9.886-5.448 0-9.866 4.425-9.866 9.886 0 5.46 4.418 9.885 9.866 9.885Z" fill="#F4F8FE" stroke="#3E9AF8" stroke-width="1.5"/></svg>
